resources/svg/order-play-fill.svg

<svg fill="currentColor" viewBox="0 0 24 24" xmlns="http://www.w3.org/2000/svg"><path d="M17 3.99986V2.06738C17 1.79124 17.2239 1.56738 17.5 1.56738C17.617 1.56738 17.7302 1.60839 17.8201 1.68327L21.9391 5.11575C22.1512 5.29253 22.1799 5.60782 22.0031 5.81995C21.9081 5.93395 21.7674 5.99986 21.619 5.99986H2V3.99986H17ZM2 17.9999H22V19.9999H2V17.9999ZM2 10.9999H22V12.9999H2V10.9999Z"/></svg>

<svg xmlns="http://www.w3.org/2000/svg" viewBox="0 0 24 24" fill="currentColor">
    <g>
        <path fill="none" d="M0 0h24v24H0z"/>
        <path d="M17 4V2.068a.5.5 0 0 1 .82-.385l4.12 3.433a.5.5 0 0 1-.321.884H2V4h15zM2 18h20v2H2v-2zm0-7h20v2H2v-2z"/>
    </g>
</svg>
